X:324
T:Reel 324
M:4/4
K:Gmaj
L:1/8
 (3def |g>G (3GGG G>G (3GAG |AGA (3AAA e>A (3AGA |e>f (3gfg fggB|AAAA BcdA (3AGA |Ggf (3GGG g>G (3BAG |Aaaf agfg|e>f (3fef g>d (3BAG |AFAG G2|d||g>G (3GGG d>G (3BAG |A>A (3AAA e>A (3AAA |e>A (3AAA e>A (3AAA |e>A (3AAA e>A (3AAA | (3BfG d>G e>G (3GGG |E>A (3AAA e>A (3AGA |GAGB AGAG|AG2:|
